!!!COM: Johannes Brahms
!!!CNT: Deutscher
!!!TXO: Deutsche
!!!OTL: Fru2hlingstrost
!!!OPS: Op. 63
!!!ONM: No. 1
!!!LYR: Schenkendorf
!!!ONB: Original key: A Major
!!!ENC: Ayako Kataoka        
!!!EED: Leigh VanHandel
!!!YOR: C.F. Peters, Brahms Lieder fu2r eine Singstimme mit Klavierbegleitung, Band III, ausgabe fu2r tiefere Stimme
!!!ODT: 1874/
!!NB: Vocal melody and text only encoded.
**kern	**silbe
*clefG2	*
*k[b-]	*
*M6/4	*
*MM[vivace]	*
!! tempo indication: Lebhaft
=4	=4
2.r	.
4r	.
4r	.
{4c	{Es
=5	=5
2f	weht
4f	um
2dd	mich
4cc	Nar-
=6	=6
2cc	-zis-
4bn	-sen-
2f}	-duft,}
{4g	{es
=7	=7
2a	spricht
4f	zu
2dd	mir
4cc	die
=8	=8
2a	Fru2h-
4b-	-lings-
2f}	-luft:}
{4g	{Ge-
=9	=9
(2a	-lieb-
4g)	|
4g}	-ter,}
4r	.
{4a-	{Ge-
=10	=10
(2cc	-lieb-
4bn)	|
4b}	-ter,}
4r	.
{4cc	{er-
=11	=11
2ff	-wach
4a	im
4.bn	ro-
8b	-ten
8cc	Mor-
8dd	-gen-
=12	=12
2cc}	-glanz,}
{4cc	{dein
(4dd	harrt
4bn)	|
4g	ein
=13	=13
2ee	blu2-
4dd	-ten-
2a	-rei-
4bn	-cher
=14	=14
2cc}	Kranz,}
{4cc	{Be-
([2.cc	-tru2b-
=15	=15
2cc]	|
4a	|
4cc	|
4b-	|
4g)	|
=16	=16
4e}	-ter,}
4r	.
{4cc	{Be-
(2.cc	-tru2b-
=17	=17
4dd	|
4cc	|
4a	|
4cc)	|
4b-}	-ter,}
{4d	{Be-
=18	=18
(2.f	-tru2b-
2b-	|
4e)	|
=19	=19
4f}	-ter!}
4r	.
4r	.
2.r	.
=22	=22
2.r	.
4r	.
4r	.
{4g	{Nur
=23	=23
(4a	musst
4bn)	|
4cc	du
2dd	ka2mp-
4g	-fen
=24	=24
(4a	drum
4bn)	|
4cc	und
2dd}	tun}
{4g	{und
=25	=25
(4cc	la2n-
4ee)	|
4dd	-ger
(4cc	nicht
4bn)	|
4a	in
=26	=26
(2bn	Tra2u-
[4dd	|
4dd]	|
4cc)	|
4f#	-men
=27	=27
4g}	ruhn;}
4r	.
{4bn	{lass
(2b	schwin
4a)	|
=28	=28
4g}	-den,}
4r	.
{4bn	{lass
(2b	schwin-
4a)	|
=29	=29
4g}	-den!}
4r	.
{4g	{Komm,
(4bn	Lie-
4cc)	|
4dd	-ber,
=30	=0
2a	komm
4g	aufs
(4bn	Feld
4cc)	|
4dd	hin-
=31	=31
2a}	-aus,}
{4g	{du
(4cc	wirst
4ee)	|
4dd	im
=32	=32
(4cc	gru2-
4bn)	|
4a	-nen
(4g	Bla2t-
4e)	|
4d	-ter-
=33	=33
4g}	-haus}
4r	.
{4a	{ihn
(2cc	fin-
4bn)	|
=34	=34
4cc}	-den,}
4r	.
{4cc	{ihn
(2ee-	fin-
4dd)	|
=35	=35
4cc}	-den,}
4r	.
{4f#	{ihn
(2a	fin-
4g)	|
=36	=36
4c}	-den.}
4r	.
4r	.
2.r	.
=37	=37
2.r	.
4r	.
4r	.
{4c	{Wir
=38	=38
2f	sind
4f	dir
2dd	al-
4cc	-le
=39	=39
2cc	wohl-
4bn	-ge-
2f}	-sinnt,}
{4g	{du
=40	=40
2a	ar-
4f	-mes,
2dd	lie-
4cc	-be-
=41	=41
2a	-ban-
4b-	-ges
2f}	Kind,}
{4g	{wir
=42	=42
(2a	Du2f-
4g)	|
4g}	-te,}
4r	.
{4a-	{wir
=43	=43
(2cc	Du2f-
4bn)	|
4b}	-te;}
4r	.
{4cc	{warst
=44	=44
2ff	im-
4a	-mer
4.bn	trei
8b	uns
8bb	Spiel-
8dd	-ge-
=45	=45
4cc}	-sell,}
4r	.
{4cc	{drum
(4dd	die-
4bn)	|
4g	-nen
=46	=46
2ee	wil-
4dd	-lig
2a	dir
4bn	und
=47	=47
4cc}	schnell}
4r	.
{4cc	{die
([2.cc	Lu2f-
=48	=48
2cc]	|
4a	|
4cc	|
4b-	|
4g)	|
=49	=49
4e}	-te,}
4r	.
{4cc	{die
(2.cc	lu2f-
=50	=50
4dd	|
4cc	|
4a	|
4cc)	|
4b-}	-te,}
{4d	{die
=51	=51
(2.f	Lu2f-
2b-	|
4g)	|
=52	=52
4f}	-te.}
4r	.
4r	.
2.r	.
=55	=55
2.r	.
4r	.
4r	.
{4f	{Zur
=56	=56
*k[b-e-]	*
(4dd	Lieb-
4b-)	|
4g	-sten
2b-	tra-
4a	-gen
=57	=57
(4ee-	wir
4cc)	|
4a	dein
2cc}	Ach,}
{4b-	{und
=58	=58
(4.b-	kra2n-
8cc)	|
4b-	-zen
(4b-	ihr
4f)	|
4b-	das
=59	=59
(4.cc	Schlaf-
8dd)	|
4cc	ge-
(4.cc	-mach
8dd)	|
4cc	mit
=60	=60
(2cc	Blu2-
4g)	|
4a}	-ten,}
4r	.
{4dd	{mit
=61	=61
(2cc	Blu2-
4g)	|
4a}	-ten.}
4r	.
4r	.
=62	=62
2.r	.
4r	.
4r	.
{4a	{Wir
=63	=63
(4dd	wol-
4b-)	|
4g	-len,
2b-	wenn
4a	du
=64	=64
(4cc	von
4a)	|
4f	ihr
2a}	gehst,}
{4g	{und
=65	=65
(4b-	ein-
4g)	|
4e-	-sam
2g	dann
4f#	und
=66	=66
(4.b-	trau-
8cc)	|
4b-	-rig
(4.b-	stehst,
8cc)	|
4b-	sie
=67	=67
(2dd	hu2-
4b-)	|
4f}	-ten,}
4r	.
{4b-	{sie
=68	=68
([2.dd	hu2-
4dd]	|
2cc)	|
=69	=69
4b-}	-ten.}
4r	.
4r	.
2.r	.
=70	=70
2.r	.
2r	.
{4c	{Er
=71	=71
*k[b-]	*
2f	wach
4f	im
2dd	mor-
4cc	-gen-
=72	=72
2cc	-ro-
4bn	-ten
2f}	Glanz,}
{4g	{schon
=73	=73
2a	har-
4f	-ret
2dd	dein
4cc	der
=74	=74
2a	Myr-
4b-	-ten
2f}	kranz,}
{4g	{Ge-
=75	=75
(2a	-lieb-
4g)	|
4g}	-ter,}
4r	.
{4a-	{Ge-
=76	=76
(2cc	-lieb-
4bn)	|
4b}	-ter!|}
4r	.
{4cc	{Der
=77	=77
2ff	Fru2h-
4a	-ling
4.bn	ku2n-
8b	-det
8cc	gu-
8dd	-te
=78	=78
4cc}	Ma2r,}
4r	.
{4cc	{und
(4dd	nun
4bn)	|
4g	kein
=79	=79
2ee}	Ach,}
{4dd	{kein
2a	Wei-
4bn	-nen
=80	=80
4cc}	mehr,}
4r	.
{4cc	{Be-
([2.cc	-tru2b-
=81	=81
2cc]	|
4a	|
4cc	|
4b-	|
4g)	|
=82	=82
4e}	ter,}
4r	.
{4cc	{Be-
(2.cc	-tru2b-
=83	|
4dd	|
4cc	|
4a	|
4cc)	|
4b-}	-ter,}
{4d	{Be-
=84	=84
(2.f	-tru2b-
2b-	|
4e)	|
=85	=85
4f}	-ter!}
4r	.
4r	.
2.r	.
*-	*-
